X: 20
T: Acemaşîrân Sazsemâîsi
C: Gazi Giray Han
O: Turkey
F: http://compmusic.upf.edu/node/140
N: acemasiran--sazsemaisi--aksaksemai----gazi_giray_han
N: makam= acemasiran
N: form= sazsemaisi
N: usul= aksaksemai = 10/8
M: 10/8
L: 1/16
K: C _B   
Q: 1/4=120
%%MIDI tuningsystem comma53
f4 e2de dcd2 e2f4z2  | efef g2ab aggf fga4z2  | 
w:   |   | 
c'bba a2b2 c'2d'c' bag4b2  | abag f2g2 a2gf egf4z2  | 
w:   |   | 
f4 e2de dcBA BcA4z2  | ABAG ABc3dc2 B2AB A2G2  | 
w:   |   | 
F4 ABAG FED2 E2F4z2  | f4 e2de dcBA BcA4z2  | 
w:   |   | 
ABAG ABc3dc2 B2AB A2G2  | F4 ABAG FED2 E2F4z2  | 
w:   |   | 
c4 gfe2 c2dc dec4z2  | dcdf e2f2 g2ag fga4z2  | 
w:   |   | 
abag a2f2 g2a2 b2c'd' c'2b2  | a4 f2ga gfec def4z2  | 
w:   |   | 
c4 gfe2 c2dc dec4z2  | dcdf e2f2 g2ag fga4z2  | 
w:   |   | 
abag a2f2 g2a2 b2c'd' c'2b2  | a4 f2ga gfec def4z2  | 
w:   |   | 
a4 b2a4ga g2f4z2  | gfef g2a2 f2g2 a2b4c'd'  | \
w:   |   | 
c'd'c'b agfe dcd2 e2f2 g2a2  | 
w:   | 
gag2 f2g3agf egf4z2  | f4 e2f4c2 f2g2 a2b2  | \
w:   |   | 
a2g2 f2e2 d2c4z2 c2e2  | 
w:   | 
c2c2 e2c2 d2e2 f2g2 a2b2  | c'2b2 a2g2 b2a2 g2f2 e2d2  | \
w:   |   | 
c4 f4 e2de dcd2 e2f4z2 efef g2ab aggf fga4z2 c'bba a2b2 c'2d'c' bag4b2 abag f2g2 a2gf egf4z2 f4 e2de dcBA BcA4z2 ABAG ABc3dc2 B2AB  | 
w:   | 
A2G2 F4 ABAG FED2 E2F4z2 c4 gfe2 c2dc dec4z2 dcdf e2f2 g2ag fga4z2 abag a2f2 g2a2 b2c'd'  | 
w:   | 
c'2b2 a4 f2ga gfec def4z2 a4 b2a4ga g2f4z2 gfef g2a2 f2g2 a2b4c'd' c'd'c'b agfe dcd2 e2f2  | 
w:   | 
g2a2 gag2 f2g3agf egf4z2 f4 e2f4c2 f2g2  | \
w:   | 
a2b2 a2g2 f2e2 d2c4z2  | 
w:   | 
c2e2 c2c2 e2c2 d2e2 f2g2  | a2b2 c'2b2 a2g2 b2a2 g2f2  | \
w:   |   | 
e2f4z2 |
w:   | 


